src/utils/icons/main/links/readership.svg

<svg width="51" height="50" viewBox="0 0 51 50" fill="none" xmlns="http://www.w3.org/2000/svg">
<path d="M5.66675 5H25.6667C36.7124 5 45.6667 13.9543 45.6667 25H25.6667C14.6211 25 5.66675 16.0457 5.66675 5Z" fill="#FFD11A"/>
<path d="M5.66675 25H25.6667C36.7124 25 45.6667 33.9543 45.6667 45H25.6667C14.6211 45 5.66675 36.0457 5.66675 25Z" fill="#404040"/>
</svg>

<svg xmlns="http://www.w3.org/2000/svg" width="51" height="50" fill="none"><path fill="#FFD11A" d="M5.667 5h20c11.045 0 20 8.954 20 20h-20c-11.046 0-20-8.954-20-20"/><path fill="#404040" d="M5.667 25h20c11.045 0 20 8.954 20 20h-20c-11.046 0-20-8.954-20-20"/></svg>
